X:1
T:Vermeyd die Sünd
T:André Vierendeels
T:Melody by Georg Vogler (1625) (Soprano voice)
T:Source  Catechismus---Würzburg---J.Volmari---1652. Editor André Vierendeels (07/10/17).
T:Notes : Original clef : C1, other voices supplied editorially Original note values have been halved Text Middle German
T:Vermeyd die Sünd
T:©
T:©
C:André Vierendeels
Z:©
%%score [ 1 2 3 ]
L:1/8
Q:1/4=120
M:2/2
K:F
V:1 treble nm="Soprano" snm="S"
V:2 treble-8 nm="Tenor" snm="T"
V:3 bass nm="Bass" snm="B"
V:1
"^1)" A4 c2 B2 | A4 G2 F2- | F2 E2 F4 | z4 A4 | c2 B2 A4 | G2 F4 E2 | F4 z4 | A4 B2 c2 | %8
w: Ver- meyd die|Sünd: umb Ehr|_ und Gut,|umb|Leib, und Seel|sie bren- gen|thut,|Gott ist zu|
w: Sieh, Lu- ci-|fer vom Him-|* mels Thron|ver-|stos- sen wird|mit Spott und|Hohn,|er musz mit|
 d2 c2 =B4 | c4 !fermata!d4 | A4 A2 A2 | c4 B2 A2- | A2 G2 A4 | z4 e4 | c4 =B2 c2- | c2 A2 d4 | %16
w: ih- rer Straff|ge- rust.|Sein Grimm und|Zorn er- schräck-|* lich ist,|er|rech- net scharff|_ und fey-|
w: sei- ner Sün-|den Brut.|Als ein Blitz|in die höl-|* lisch Glut,|ver-|lie- ret Got-|* tes Gnad|
 ^c4 d4 | z4 d4 | c2 B2 c2 A2 | d4 c4 | A8 |] %21
w: ret nit,|ein|grau- sams Fewr vor|ihm her-|tritt.|
w: und Huld,|musz|brin- nen e- wig|in der|Schuld.|
V:2
"^2)""^1)" c4 e2 d2 | f4 e2 A2 | B4 c4 | z4 c4 | e2 d2 f4 | e2 A2 c4 | c4 z4 | c4 d2 e2 | %8
w: Ver- meyd die|Sünd: umb Ehr|und Gut,|umb|Leib, und Seel|sie bren- gen|thut,|Gott ist zu|
w: A- dam we-|gen ver- bott-|ner Speitz,|musz|wei- chen ausz|dem Pa- ra-|deysz:|und wir mit|
 f2 e2 d4 | e4 !fermata!d4 | c4 A2 c2 | e4 d2 f2 | d4 e4 | z4 g4 | f4 g2 c2- | f2 e2 f4 | e4 f4 | %17
w: ih- rer Straff|ge- rust.|Sein Grimm und|Zorn er- schräck-|lich ist,|er|rech- net scharff|_ und fey-|ret nit,|
w: ihm die gan-|tze Welt.|Er- sauf- fen|müst mit Gut|und Geld|auch|So- do- mam|_ bisz in|den Grund,|
 z4 g4 | c2 d2 c2 c2 | d4 e4 | f8 |] %21
w: ein|grau- sams Fewr vor|ihm her-|tritt.|
w: das|wil- de Few'r fratz|und ver-|schlund.|
V:3
"^3)""^1)""^4)" F,4 C,2 G,2 | F,4 C,2 F,2 | G,4 F,4 | z4 F,4 | C,2 G,2 F,4 | C,2 F,2 G,4 | F,4 z4 | %7
w: Ver- meyd die|Sünd: umb Ehr|und Gut,|umb|Leib, und Seel|sie bren- gen|thut,|
w: E- gyp- ten|hett der Straf-|fen viel,|Frösch,|Flie- gen, Schna-|cken, g'schwer ohn|Ziel,|
 F,4 G,2 C,2 | B,,2 C,2 G,4 | C,4 !fermata!G,4 | F,4 D,2 A,,2 | C,4 G,2 F,2 | B,4 A,4 | z4 C,4 | %14
w: Gott ist zu|ih- rer Staff|ge- rust.|Sein Grimm und|Zorn er- schränck-|lich ist,|er|
w: New- schre- cken,|Ha- gel, Pest,|und Hand.|Ver- derbt eu|auch das gan-|tze Land,|nach|
 F,4 G,2 G,2 | F,2 A,2 D,4 | A,4 D,4 | z4 G,4 | E,2 G,2 A,2 F,2 | B,4 C4 | F,8 |] %21
w: rech- net scharff|und _ fey-|ret nit,|ein|grau- sams Fewr vor|ihm her-|tritt.|
w: Chore, Da- ta-|* o, A-|by- ron,|hat|sich die Er- den|auff- ge-|than.|

